!! 00010] TT[TB
!! Eigene Aufnahme
!!!OTL: Fen ju zaoliu ma The bay horse with white breast and whitish muzzle
!!!ARE: Neimeng
!! Ethnic Group: Menggu
!! MM, S. 76
!!!SCT: C0588
!!!YEM: Copyright 1995, estate of Helmut Schaffrath.
**kern
*ICvox
*Ivox
*M2/4
*k[]
*C:
{4e
8g
8a
=1
[2dd
=2
4dd]}
{16ee
16dd
16ee
16gg
=3
4cc
16a
16cc
8a
=4
8g
8a
16g
16a
[8g
=5
2g]
=6
24e
24d
24e
[4.g
=7
2g]}
==
!!!AGN: NN
!! Saenger: Chao Lun Batou, der das Buch nur zum Nachschlagen
!!    benutzte und ansonsten auswendig sang. Da er aus dem Osten der
!!    Neimeng kommt, kennt er nicht so viele Lieder des Westens.
!!    Alle Lieder wurden mit erkaelteter, halber Stimme in meinem
!!    Zimmer gesungen. FOTO VORHANDEN (DIAS)  31.3.87
!!    +++ Hier fehlt S. 75 in Kopie. S. 76 enthaelt nur zwei
!!    Notenzeilen. +++ ANDERES LIED? VARIANTE. Schoene Tremoli!
!!!ONB: ESAC (Essen Associative Code) Database: CHINA
!!!AMT: simple duple
!!!AIN: vox
!!!EED: Helmut Schaffrath
!!!EEV: 1.0
*-
!!!ONB: Tied note syntax fixed by Craig Sapp, 2004/05/03/
